frontend/src/assets/shooting-star.svg

<?xml version="1.0" encoding="iso-8859-1"?>
<!-- Generator: Adobe Illustrator 19.0.0, SVG Export Plug-In . SVG Version: 6.00 Build 0)  -->
<svg version="1.1" id="Layer_1" xmlns="http://www.w3.org/2000/svg" xmlns:xlink="http://www.w3.org/1999/xlink" x="0px" y="0px"
	 viewBox="0 0 512.13 512.13" style="enable-background:new 0 0 512.13 512.13;" xml:space="preserve">
<g>
	<g>
		<g>
			<path d="M224.444,224.378c-3.337,3.337-3.337,8.738,0,12.066l34.125,34.125c1.664,1.673,3.849,2.5,6.033,2.5
				c2.185,0,4.369-0.828,6.033-2.5c3.337-3.328,3.337-8.73,0-12.066l-34.125-34.125C233.174,221.05,227.781,221.05,224.444,224.378z
				"/>
			<path d="M225.699,116.952c1.69,2.005,4.105,3.046,6.545,3.046c1.937,0,3.883-0.657,5.478-1.997
				c3.61-3.038,4.079-8.414,1.05-12.023l-30.43-36.258c-3.029-3.601-8.414-4.079-12.023-1.05c-3.61,3.029-4.079,8.414-1.05,12.023
				L225.699,116.952z"/>
			<path d="M204.869,213.336c2.185,0,4.369-0.836,6.033-2.5c3.337-3.337,3.337-8.738,0-12.066l-34.116-34.116
				c-3.337-3.328-8.73-3.328-12.066,0c-3.337,3.337-3.337,8.738,0,12.066l34.116,34.116
				C200.5,212.499,202.684,213.336,204.869,213.336z"/>
			<path d="M147.559,250.43c-3.533-3.14-8.909-2.833-12.049,0.7c-3.14,3.516-2.825,8.909,0.691,12.049l37.393,33.331
				c1.621,1.451,3.652,2.159,5.675,2.159c2.347,0,4.685-0.956,6.374-2.85c3.132-3.516,2.825-8.917-0.691-12.049L147.559,250.43z"/>
			<path d="M170.94,52.252c1.69,1.997,4.096,3.021,6.519,3.021c1.946,0,3.9-0.666,5.504-2.014c3.601-3.046,4.045-8.431,1.007-12.032
				L151.655,3.023c-3.055-3.601-8.422-4.045-12.032-0.998c-3.593,3.046-4.045,8.422-1.007,12.023L170.94,52.252z"/>
			<path d="M283.691,184.723c1.698,1.988,4.096,3.012,6.511,3.012c1.963,0,3.917-0.666,5.521-2.022
				c3.593-3.046,4.036-8.431,0.99-12.032l-32.802-38.664c-3.038-3.576-8.431-4.028-12.032-0.99
				c-3.593,3.055-4.028,8.439-0.981,12.032L283.691,184.723z"/>
			<path d="M428.169,269.272c1.638,2.466,4.352,3.797,7.108,3.797c1.63,0,3.268-0.461,4.727-1.434
				c3.925-2.611,4.983-7.91,2.364-11.827l-170.667-256c-2.611-3.925-7.919-4.992-11.836-2.372
				c-3.917,2.611-4.975,7.919-2.364,11.836L428.169,269.272z"/>
			<path d="M510.225,293.805c-3.746-8.073-12.433-13.261-20.915-12.126c-7.253,0.956-70.033,10.351-89.907,13.329l-42.069-76.715
				c-5.53-11.196-12.416-13.551-17.212-13.551c-10.146,0-17.271,10.155-19.063,20.181c-1.749,9.754-10.103,65.502-12.843,83.823
				c-19.277,4.506-81.903,19.106-91.785,20.873c-8.841,1.579-18.5,7.381-20.164,16.768c-0.785,4.429-0.239,12.971,12.297,20.275
				c14.148,8.252,59.631,35.703,74.487,44.681l-9.677,77.005c-0.751,6.007,1.169,12.126,5.291,16.794
				c3.917,4.446,9.361,6.989,14.95,6.989c4.762,0,9.318-1.801,13.056-5.094c7.159-6.042,48.802-42.035,61.943-53.41
				c19.081,7.859,88.235,36.343,97.374,40.243c3.661,1.57,7.305,2.364,10.82,2.364c6.997,0,13.124-3.294,16.41-8.815
				c3.652-6.118,3.405-13.952-0.427-20.966c-4.19-9.122-32.196-68.804-40.516-86.519l54.878-65.041
				C512.35,308.73,513.502,300.845,510.225,293.805z M494.115,303.891l-58.411,69.205c-2.15,2.551-2.62,6.118-1.203,9.131
				c0,0.009,37.862,80.632,43.042,91.853c1.306,2.406,1.314,4.104,1.007,4.608c-0.137,0.239-0.777,0.478-1.741,0.478
				c-0.819,0-2.202-0.171-4.113-0.99c-10.667-4.548-98.705-40.789-102.443-42.334c-2.978-1.203-6.383-0.666-8.832,1.442
				c0,0-57.267,49.536-65.903,56.832c-0.973,0.862-2.731,1.237-4.053-0.265c-0.87-0.973-1.297-2.236-1.152-3.371l10.368-82.517
				c0.41-3.337-1.169-6.613-4.053-8.363c-0.623-0.375-62.43-37.743-79.462-47.676c-2.142-1.246-3.209-2.227-3.721-2.807
				c0.913-0.862,3.012-2.167,5.99-2.697c12.1-2.167,94.805-21.547,98.321-22.374c3.396-0.802,5.973-3.593,6.485-7.049
				c0.12-0.785,11.605-77.841,13.619-89.062c0.393-2.21,1.391-4.156,2.236-5.299c0.521,0.691,1.237,1.801,2.108,3.541l45.099,82.253
				c1.724,3.14,5.197,4.898,8.747,4.335c0.87-0.128,87.194-13.073,95.573-14.174c0.819,0,2.449,0.939,3.132,2.406
				C495.079,301.69,495.284,302.483,494.115,303.891z"/>
			<path d="M139.094,151.093c1.664,1.673,3.849,2.5,6.033,2.5c2.185,0,4.369-0.828,6.033-2.5c3.337-3.328,3.337-8.73,0-12.066
				l-34.125-34.125c-3.328-3.328-8.73-3.328-12.066,0c-3.337,3.336-3.337,8.738,0,12.066L139.094,151.093z"/>
			<path d="M3.081,151.58l37.734,32c1.604,1.357,3.567,2.022,5.513,2.022c2.423,0,4.83-1.024,6.519-3.012
				c3.046-3.593,2.603-8.977-0.99-12.023l-37.734-32c-3.601-3.046-8.986-2.611-12.032,0.981
				C-0.955,143.149-0.512,148.533,3.081,151.58z"/>
			<path d="M252.655,436.909L13.722,257.717c-3.78-2.842-9.122-2.057-11.947,1.698c-2.825,3.772-2.065,9.122,1.707,11.947
				l238.933,179.2c1.536,1.152,3.337,1.707,5.111,1.707c2.594,0,5.163-1.178,6.835-3.413
				C257.186,445.092,256.427,439.742,252.655,436.909z"/>
			<path d="M28.186,40.186c1.664,1.672,3.849,2.5,6.033,2.5c2.185,0,4.369-0.828,6.033-2.5c3.337-3.328,3.337-8.73,0-12.066
				L14.635,2.503c-3.328-3.328-8.73-3.328-12.066,0c-3.336,3.337-3.336,8.738,0,12.066L28.186,40.186z"/>
			<path d="M81.187,194.562c-3.601-3.046-8.986-2.603-12.023,0.99c-3.046,3.593-2.603,8.977,0.99,12.032l35.994,30.532
				c1.604,1.357,3.567,2.022,5.521,2.022c2.415,0,4.821-1.024,6.511-3.012c3.046-3.593,2.603-8.977-0.99-12.032L81.187,194.562z"/>
			<path d="M79.352,91.352c1.664,1.673,3.849,2.5,6.033,2.5c2.185,0,4.369-0.828,6.033-2.5c3.336-3.328,3.336-8.73,0-12.066
				L65.835,53.703c-3.328-3.328-8.73-3.328-12.066,0c-3.337,3.337-3.337,8.738,0,12.066L79.352,91.352z"/>
		</g>
	</g>
</g>
<g>
</g>
<g>
</g>
<g>
</g>
<g>
</g>
<g>
</g>
<g>
</g>
<g>
</g>
<g>
</g>
<g>
</g>
<g>
</g>
<g>
</g>
<g>
</g>
<g>
</g>
<g>
</g>
<g>
</g>
</svg>

<svg width="512" height="513" viewBox="0 0 512 513" fill="none" xmlns="http://www.w3.org/2000/svg">
<path d="M224.377 224.378C221.04 227.715 221.04 233.116 224.377 236.444L258.502 270.569C260.166 272.242 262.351 273.069 264.535 273.069C266.72 273.069 268.904 272.241 270.568 270.569C273.905 267.241 273.905 261.839 270.568 258.503L236.443 224.378C233.107 221.05 227.714 221.05 224.377 224.378Z" fill="#F0FA4B"/>
<path d="M225.632 116.952C227.322 118.957 229.737 119.998 232.177 119.998C234.114 119.998 236.06 119.341 237.655 118.001C241.265 114.963 241.734 109.587 238.705 105.978L208.275 69.72C205.246 66.119 199.861 65.641 196.252 68.67C192.642 71.699 192.173 77.084 195.202 80.693L225.632 116.952Z" fill="#F0FA4B"/>
<path d="M204.802 213.336C206.987 213.336 209.171 212.5 210.835 210.836C214.172 207.499 214.172 202.098 210.835 198.77L176.719 164.654C173.382 161.326 167.989 161.326 164.653 164.654C161.316 167.991 161.316 173.392 164.653 176.72L198.769 210.836C200.433 212.499 202.617 213.336 204.802 213.336Z" fill="#F0FA4B"/>
<path d="M147.492 250.43C143.959 247.29 138.583 247.597 135.443 251.13C132.303 254.646 132.618 260.039 136.134 263.179L173.527 296.51C175.148 297.961 177.179 298.669 179.202 298.669C181.549 298.669 183.887 297.713 185.576 295.819C188.708 292.303 188.401 286.902 184.885 283.77L147.492 250.43Z" fill="#F0FA4B"/>
<path d="M170.873 52.252C172.563 54.249 174.969 55.273 177.392 55.273C179.338 55.273 181.292 54.607 182.896 53.259C186.497 50.213 186.941 44.828 183.903 41.227L151.588 3.02298C148.533 -0.578021 143.166 -1.02202 139.556 2.02498C135.963 5.07098 135.511 10.447 138.549 14.048L170.873 52.252Z" fill="#F0FA4B"/>
<path d="M283.624 184.723C285.322 186.711 287.72 187.735 290.135 187.735C292.098 187.735 294.052 187.069 295.656 185.713C299.249 182.667 299.692 177.282 296.646 173.681L263.844 135.017C260.806 131.441 255.413 130.989 251.812 134.027C248.219 137.082 247.784 142.466 250.831 146.059L283.624 184.723Z" fill="#F0FA4B"/>
<path d="M428.102 269.272C429.74 271.738 432.454 273.069 435.21 273.069C436.84 273.069 438.478 272.608 439.937 271.635C443.862 269.024 444.92 263.725 442.301 259.808L271.634 3.80795C269.023 -0.117054 263.715 -1.18405 259.798 1.43595C255.881 4.04695 254.823 9.35495 257.434 13.2719L428.102 269.272Z" fill="#F0FA4B"/>
<path d="M510.158 293.805C506.412 285.732 497.725 280.544 489.243 281.679C481.99 282.635 419.21 292.03 399.336 295.008L357.267 218.293C351.737 207.097 344.851 204.742 340.055 204.742C329.909 204.742 322.784 214.897 320.992 224.923C319.243 234.677 310.889 290.425 308.149 308.746C288.872 313.252 226.246 327.852 216.364 329.619C207.523 331.198 197.864 337 196.2 346.387C195.415 350.816 195.961 359.358 208.497 366.662C222.645 374.914 268.128 402.365 282.984 411.343L273.307 488.348C272.556 494.355 274.476 500.474 278.598 505.142C282.515 509.588 287.959 512.131 293.548 512.131C298.31 512.131 302.866 510.33 306.604 507.037C313.763 500.995 355.406 465.002 368.547 453.627C387.628 461.486 456.782 489.97 465.921 493.87C469.582 495.44 473.226 496.234 476.741 496.234C483.738 496.234 489.865 492.94 493.151 487.419C496.803 481.301 496.556 473.467 492.724 466.453C488.534 457.331 460.528 397.649 452.208 379.934L507.086 314.893C512.283 308.73 513.435 300.845 510.158 293.805ZM494.048 303.891L435.637 373.096C433.487 375.647 433.017 379.214 434.434 382.227C434.434 382.236 472.296 462.859 477.476 474.08C478.782 476.486 478.79 478.184 478.483 478.688C478.346 478.927 477.706 479.166 476.742 479.166C475.923 479.166 474.54 478.995 472.629 478.176C461.962 473.628 373.924 437.387 370.186 435.842C367.208 434.639 363.803 435.176 361.354 437.284C361.354 437.284 304.087 486.82 295.451 494.116C294.478 494.978 292.72 495.353 291.398 493.851C290.528 492.878 290.101 491.615 290.246 490.48L300.614 407.963C301.024 404.626 299.445 401.35 296.561 399.6C295.938 399.225 234.131 361.857 217.099 351.924C214.957 350.678 213.89 349.697 213.378 349.117C214.291 348.255 216.39 346.95 219.368 346.42C231.468 344.253 314.173 324.873 317.689 324.046C321.085 323.244 323.662 320.453 324.174 316.997C324.294 316.212 335.779 239.156 337.793 227.935C338.186 225.725 339.184 223.779 340.029 222.636C340.55 223.327 341.266 224.437 342.137 226.177L387.236 308.43C388.96 311.57 392.433 313.328 395.983 312.765C396.853 312.637 483.177 299.692 491.556 298.591C492.375 298.591 494.005 299.53 494.688 300.997C495.012 301.69 495.217 302.483 494.048 303.891Z" fill="#F0FA4B"/>
<path d="M139.027 151.093C140.691 152.766 142.876 153.593 145.06 153.593C147.245 153.593 149.429 152.765 151.093 151.093C154.43 147.765 154.43 142.363 151.093 139.027L116.968 104.902C113.64 101.574 108.238 101.574 104.902 104.902C101.565 108.238 101.565 113.64 104.902 116.968L139.027 151.093Z" fill="#F0FA4B"/>
<path d="M3.014 151.58L40.748 183.58C42.352 184.937 44.315 185.602 46.261 185.602C48.684 185.602 51.091 184.578 52.78 182.59C55.826 178.997 55.383 173.613 51.79 170.567L14.056 138.567C10.455 135.521 5.07 135.956 2.024 139.548C-1.022 143.149 -0.579003 148.533 3.014 151.58Z" fill="#F0FA4B"/>
<path d="M252.588 436.909L13.655 257.717C9.87499 254.875 4.53299 255.66 1.70799 259.415C-1.11701 263.187 -0.357011 268.537 3.41499 271.362L242.348 450.562C243.884 451.714 245.685 452.269 247.459 452.269C250.053 452.269 252.622 451.091 254.294 448.856C257.119 445.092 256.36 439.742 252.588 436.909Z" fill="#F0FA4B"/>
<path d="M28.119 40.186C29.783 41.858 31.968 42.686 34.152 42.686C36.337 42.686 38.521 41.858 40.185 40.186C43.522 36.858 43.522 31.456 40.185 28.12L14.568 2.50296C11.24 -0.825042 5.838 -0.825042 2.502 2.50296C-0.834 5.83996 -0.834 11.241 2.502 14.569L28.119 40.186Z" fill="#F0FA4B"/>
<path d="M81.12 194.562C77.519 191.516 72.134 191.959 69.097 195.552C66.051 199.145 66.494 204.529 70.087 207.584L106.081 238.116C107.685 239.473 109.648 240.138 111.602 240.138C114.017 240.138 116.423 239.114 118.113 237.126C121.159 233.533 120.716 228.149 117.123 225.094L81.12 194.562Z" fill="#F0FA4B"/>
<path d="M79.285 91.352C80.949 93.025 83.134 93.852 85.318 93.852C87.503 93.852 89.687 93.024 91.351 91.352C94.687 88.024 94.687 82.622 91.351 79.286L65.768 53.703C62.44 50.375 57.038 50.375 53.702 53.703C50.365 57.04 50.365 62.441 53.702 65.769L79.285 91.352Z" fill="#F0FA4B"/>
</svg>
